app/dist/common/images/gs-yuasa.svg

<svg height="18" viewBox="0 0 18 18" width="18" xmlns="http://www.w3.org/2000/svg"><path d="m0 0h18v18h-18z" fill="#f0f3fa"/><path d="m12.52 13.07c-.65.29-1.37.43-2.13.43-2.86 0-4.89-1.92-4.89-4.74 0-2.11 1.13-3.9 3-4.68l-.47-1.08a6.4 6.4 0 0 0 -4.03 5.78 6.2 6.2 0 0 0 6.39 6.22c.93 0 1.82-.2 2.61-.55z" fill="#ef821e"/><path d="m10 8.5v1.06h1v1.21c-.14.14-.75.23-1.05.23-.95 0-1.45-.95-1.45-1.97 0-.92.49-2.03 1.58-2.03.64 0 1.27.17 1.92.61v-1.12a4.33 4.33 0 0 0 -1.97-.49 2.94 2.94 0 0 0 -3.03 3.02c0 1.86 1.3 2.98 2.95 2.98.71 0 1.62-.3 2.05-.7v-2.8" fill="#007851"/></svg>

<!-- by TradingView --><svg width="18" height="18" viewBox="0 0 18 18" xmlns="http://www.w3.org/2000/svg"><path fill="#F0F3FA" d="M0 0h18v18H0z"/><path d="M12.52 13.07c-.65.29-1.37.43-2.13.43-2.86 0-4.89-1.92-4.89-4.74 0-2.11 1.13-3.9 3-4.68L8.03 3A6.4 6.4 0 0 0 4 8.78 6.2 6.2 0 0 0 10.39 15c.93 0 1.82-.2 2.61-.55l-.48-1.38Z" fill="#EF821E"/><path d="M10 8.5v1.06h1v1.21c-.14.14-.75.23-1.05.23C9 11 8.5 10.05 8.5 9.03c0-.92.49-2.03 1.58-2.03.64 0 1.27.17 1.92.61V6.49A4.33 4.33 0 0 0 10.03 6 2.94 2.94 0 0 0 7 9.02C7 10.88 8.3 12 9.95 12c.71 0 1.62-.3 2.05-.7V8.5" fill="#007851"/></svg>
